svgs/english_dictionary.svg

<svg width="192" height="192" viewBox="0 0 192 192" fill="none" xmlns="http://www.w3.org/2000/svg">
<path d="M96.468 39.527L96.468 101M141 69.9131H51" stroke="black" stroke-width="8" stroke-linecap="round"/>
<path d="M104.9 56.3023V39H128.814L104.9 56.3023Z" stroke="black" stroke-width="6" stroke-linejoin="round"/>
<path d="M123.144 60.1472L142 46.6899V60.1472H123.144Z" stroke="black" stroke-width="6" stroke-linejoin="round"/>
<path d="M50 95.7132V79.3721H74.8462L50 95.7132Z" stroke="black" stroke-width="6" stroke-linejoin="round"/>
<path d="M88 86.1008V100.519H66.9763L88 86.1008Z" stroke="black" stroke-width="6" stroke-linejoin="round"/>
<path d="M88 56.155V39H64.1095L88 56.155Z" stroke="black" stroke-width="6" stroke-linejoin="round"/>
<path d="M104.9 83.217V100.519H129.878L104.9 83.217Z" stroke="black" stroke-width="6" stroke-linejoin="round"/>
<path d="M141.941 91.3485V79.1572H123.76L141.941 91.3485Z" stroke="black" stroke-width="6" stroke-linejoin="round"/>
<path d="M50.0101 46.1389V61.0655L72.9994 61.5711L50.0101 46.1389Z" stroke="black" stroke-width="6" stroke-linejoin="round"/>
<path d="M54.5 40.5L82.5 60.186" stroke="black" stroke-width="6" stroke-linecap="round"/>
<path d="M137.901 40.5512L110.5 60.5" stroke="black" stroke-width="6" stroke-linecap="round"/>
<path d="M139.5 98.4806L109.62 78.1412" stroke="black" stroke-width="6" stroke-linecap="round"/>
<path d="M86.2693 79.3721L56 99.9922" stroke="black" stroke-width="6" stroke-linecap="round"/>
<path fill-rule="evenodd" clip-rule="evenodd" d="M27 16C23.6863 16 21 18.6863 21 22V147.576V170C21 173.314 23.6863 176 27 176H164C167.314 176 170 173.314 170 170C170 166.687 167.314 164 164 164H159.85V153.576H164C167.314 153.576 170 150.89 170 147.576V22C170 18.6863 167.314 16 164 16H27ZM147.85 153.576H33V164H147.85V153.576ZM158 141.576H33V28H158V141.576Z" fill="black"/>
</svg>

<svg xmlns="http://www.w3.org/2000/svg" width="192" height="192" fill="none" viewBox="0 0 192 192"><path stroke="#000" stroke-linecap="round" stroke-width="8" d="M96.468 39.527V101M141 69.913H51"/><path stroke="#000" stroke-linejoin="round" stroke-width="6" d="M104.9 56.302V39h23.914L104.9 56.302Zm18.244 3.845L142 46.69v13.457h-18.856ZM50 95.713v-16.34h24.846L50 95.712ZM88 86.1v14.419H66.976L88 86.101Zm0-29.945V39H64.11L88 56.155Zm16.9 27.062v17.302h24.978L104.9 83.217Zm37.041 8.132V79.156H123.76l18.181 12.192ZM50.01 46.139v14.926l22.99.506L50.01 46.14Z"/><path stroke="#000" stroke-linecap="round" stroke-width="6" d="m54.5 40.5 28 19.686m55.401-19.635L110.5 60.5m29 37.98-29.88-20.339m-23.35 1.231L56 99.992"/><path fill="#000" fill-rule="evenodd" d="M27 16a6 6 0 0 0-6 6v148a6 6 0 0 0 6 6h137a6 6 0 1 0 0-12h-4.15v-10.424H164a6 6 0 0 0 6-6V22a6 6 0 0 0-6-6H27Zm120.85 137.576H33V164h114.85v-10.424Zm10.15-12H33V28h125v113.576Z" clip-rule="evenodd"/></svg>
